dist/svg/strikethrough.svg

<svg width="16" height="16" viewBox="0 0 16 16" fill="rgb(34, 34, 34)" xmlns="http://www.w3.org/2000/svg"><title>strikethrough</title><path d="M7.641 8.99995H11.581L11.591 9.01295C11.848 9.42295 12 9.91995 12 10.4539C12 10.4549 12 10.4559 12 10.4569C12.001 10.4779 12.001 10.5019 12.001 10.5259C12.001 11.5479 11.504 12.4549 10.738 13.0159L10.729 13.0219C9.868 13.6379 8.794 14.0069 7.633 14.0069C7.54 14.0069 7.447 14.0049 7.356 13.9999L7.369 14.0009C6.161 13.9979 5.004 13.7889 3.929 13.4049L4.001 13.4269V10.2959H5.323L5.605 12.3719L5.835 12.6339C6.046 12.7019 6.303 12.7639 6.567 12.8059L6.599 12.8099C6.829 12.8469 7.093 12.8689 7.363 12.8689C7.366 12.8689 7.368 12.8689 7.371 12.8689C7.412 12.8709 7.461 12.8729 7.51 12.8729C8.068 12.8729 8.587 12.7049 9.019 12.4159L9.009 12.4219C9.382 12.1659 9.624 11.7419 9.624 11.2619C9.624 11.2519 9.624 11.2409 9.624 11.2309V11.2329C9.624 11.2289 9.624 11.2229 9.624 11.2179C9.624 10.7749 9.461 10.3709 9.191 10.0609L9.193 10.0629C8.793 9.64495 8.316 9.30595 7.784 9.06595L7.756 9.05495C7.727 9.03995 7.682 9.01795 7.644 8.99995H7.641ZM6.836 5.72595C6.636 5.46195 6.516 5.12795 6.516 4.76495C6.516 4.75995 6.516 4.75495 6.516 4.74995C6.516 4.73895 6.516 4.72595 6.516 4.71295C6.516 4.24595 6.735 3.83095 7.077 3.56395L7.08 3.56195C7.459 3.27595 7.938 3.10295 8.458 3.10295C8.498 3.10295 8.538 3.10395 8.578 3.10595H8.572C8.582 3.10595 8.595 3.10595 8.607 3.10595C8.848 3.10595 9.084 3.12795 9.313 3.16995L9.289 3.16595C9.5 3.20295 9.689 3.26795 9.863 3.35595L9.851 3.35095L10.098 3.59695L10.388 5.39395H11.65V2.59195C11.186 2.42195 10.625 2.26895 10.048 2.15995L9.979 2.14895C9.495 2.05595 8.938 2.00195 8.368 2.00095H8.367C8.308 1.99795 8.239 1.99695 8.17 1.99695C7.117 1.99695 6.149 2.36095 5.386 2.97095L5.395 2.96395C4.693 3.52895 4.247 4.38795 4.247 5.35095C4.247 5.37195 4.247 5.39395 4.248 5.41495V5.41195C4.25 5.62195 4.276 5.82495 4.325 6.01995L4.321 6.00195H7.087C6.997 5.91795 6.915 5.82895 6.841 5.73295L6.837 5.72795L6.836 5.72595ZM1 6.99995V7.99995H15V6.99995H1Z" fill="rgb(34, 34, 34)" fill-opacity="1.00"/></svg>

<!-- Generated by Trend Micro Style Portal -->
<svg version="1.1" xmlns="http://www.w3.org/2000/svg" width="16" height="16" viewBox="0 0 16 16">
  <title>strikethrough</title>
  <path fill="rgb(34,34,34)" d="M7.641 9h3.94l0.010 0.013c0.257 0.41 0.409 0.907 0.409 1.441 0 0.001 0 0.002 0 0.003v-0c0.001 0.021 0.001 0.045 0.001 0.069 0 1.022-0.497 1.929-1.263 2.49l-0.009 0.006c-0.861 0.616-1.935 0.985-3.096 0.985-0.093 0-0.186-0.002-0.277-0.007l0.013 0.001c-1.208-0.003-2.365-0.212-3.44-0.596l0.072 0.022v-3.131h1.322l0.282 2.076 0.23 0.262c0.211 0.068 0.468 0.13 0.732 0.172l0.032 0.004c0.23 0.037 0.494 0.059 0.764 0.059 0.003 0 0.005 0 0.008 0h-0c0.041 0.002 0.090 0.004 0.139 0.004 0.558 0 1.077-0.168 1.509-0.457l-0.010 0.006c0.373-0.256 0.615-0.68 0.615-1.16 0-0.010-0-0.021-0-0.031l0 0.002c0-0.004 0-0.010 0-0.015 0-0.443-0.163-0.847-0.433-1.157l0.002 0.002c-0.4-0.418-0.877-0.757-1.409-0.997l-0.028-0.011c-0.029-0.015-0.074-0.037-0.112-0.055zM6.836 5.726c-0.2-0.264-0.32-0.598-0.32-0.961 0-0.005 0-0.010 0-0.015v0.001c-0-0.011-0-0.025-0-0.038 0-0.467 0.219-0.882 0.561-1.149l0.003-0.002c0.379-0.286 0.858-0.459 1.378-0.459 0.040 0 0.080 0.001 0.12 0.003l-0.006-0c0.010-0 0.023-0 0.035-0 0.241 0 0.477 0.022 0.706 0.064l-0.024-0.004c0.211 0.037 0.4 0.102 0.574 0.19l-0.012-0.005 0.247 0.246 0.29 1.797h1.262v-2.802c-0.464-0.17-1.025-0.323-1.602-0.432l-0.069-0.011c-0.484-0.093-1.041-0.147-1.611-0.148h-0.001c-0.059-0.003-0.128-0.004-0.197-0.004-1.053 0-2.021 0.364-2.784 0.974l0.009-0.007c-0.702 0.565-1.148 1.424-1.148 2.387 0 0.021 0 0.043 0.001 0.064l-0-0.003c0.002 0.21 0.028 0.413 0.077 0.608l-0.004-0.018h2.766c-0.090-0.084-0.172-0.173-0.246-0.269l-0.004-0.005zM1 7v1h14v-1z"></path>
</svg>
